src/assets/images/svg/facebook-foot.svg

<svg class="footer-social__svg footer-social__svg_fb btn" width="35" height="32"
                                                viewBox="0 0 35 32" fill="none" xmlns="http://www.w3.org/2000/svg">
                                                <path
                                                    d="M30.2836 0H4.71656C2.11186 0 0.000244141 1.93055 0.000244141 4.31206V27.6878C0.000244141 30.0693 2.11178 31.9998 4.71656 31.9998H17.3261L17.3476 20.5648H14.0983C13.676 20.5648 13.3333 20.2526 13.3316 19.8666L13.316 16.1806C13.3144 15.7924 13.6582 15.4769 14.0828 15.4769H17.3262V11.9153C17.3262 7.78215 20.0871 5.53159 24.1199 5.53159H27.429C27.8524 5.53159 28.1958 5.84542 28.1958 6.23259V9.34063C28.1958 9.72764 27.8527 10.0414 27.4295 10.0416L25.3987 10.0425C23.2055 10.0425 22.7809 10.9953 22.7809 12.3936V15.477H27.5999C28.0591 15.477 28.4154 15.8436 28.3613 16.2605L27.8834 19.9465C27.8377 20.2992 27.5105 20.565 27.1221 20.565H22.8024L22.7809 32H30.2837C32.8884 32 35 30.0695 35 27.688V4.31206C34.9999 1.93055 32.8884 0 30.2836 0Z"
                                                    fill="" />
                                            </svg>

<svg width="35" height="32" viewBox="0 0 35 32" fill="none" xmlns="http://www.w3.org/2000/svg"><path d="M30.284 0H4.717C2.112 0 0 1.93 0 4.312v23.376C0 30.069 2.112 32 4.717 32h12.61l.02-11.435h-3.249c-.422 0-.765-.312-.766-.698l-.016-3.686c-.002-.389.342-.704.767-.704h3.243v-3.562c0-4.133 2.761-6.383 6.794-6.383h3.309c.423 0 .767.313.767.7v3.109c0 .387-.343.7-.767.7l-2.03.002c-2.194 0-2.618.952-2.618 2.35v3.084H27.6c.46 0 .815.367.761.784l-.478 3.686c-.045.352-.372.618-.76.618h-4.32L22.78 32h7.503C32.888 32 35 30.07 35 27.688V4.312C35 1.931 32.888 0 30.284 0z" fill="#fff"/></svg>
